!!!OTL: 629. Liebe macht Alles gleich.
!!!ODT: 1880
!!!ARE: Europa, Mitteleuropa, Deutschland, Lahngegend
!!!SCT: E0629
!!!TXL: @@DE
!!!YEM: Copyright 1995, estate of Helmut Schaffrath.
**kern	**text
*ICvox	*
*M6/8	*
*k[]	*
*C:	*
!LO:TX:a:t=Aus der Lahngegend. 1880.	!
{8c	Einſt
=1	=1
8.g	gieng
16g	ich
8g	im
8a	Tan-
8g	-nen-
8f	-wald
=2	=2
4e	her,
8r	.
4r}	.
{8c	Da
=3	=3
8.g	hört
16g	ich
8g	ein
8a	Vo-
8g	-gel-
8f	-ge-
=4	=4
4e	-ſchrei.
8r	.
4r}	.
{8g	Was
=5	=5
4cc	muß
8g	das
4g	für
8g	ein
=6	=6
8.a	Vo-
16a	-gel
8a	wohl
4a}	ſein
{8a	das
=7	=7
4g	muß
16g	ei-
16g	-ne
8a	Nach-
8g	-ti-
8f	-gall
=8	=8
4e	ſein.
4.r}	.
==	==
!!!AGN: Liebes - Lied
!!!ONB: ESAC (Essen Associative Code) Database: ERK2
!!!AMT: compound duple
!!!AIN: vox
!!!EED: Helmut Schaffrath
!!!EEV: 1.0
!!!GTL: Liebeslieder [Neuere (aus dem 18. bis 19. Jahrh.) - Liebeslust]
!!!URL-scan: https://rosdok.uni-rostock.de/mcrviewer/recordIdentifier/rosdok_ppn745177662/iview2/phys_0444.iview2?x=164.02521884918337&y=1053.789311570581&scale=0.7029437510502773&rotation=0&layout=singlePageLayout
!!!ENC: Anna Maria Matuszewska
!!!EEV: 2024/12/12
*-	*-
